icons/24x24_phone_filled.svg

<svg xmlns="http://www.w3.org/2000/svg" width="24" height="24" viewBox="0 0 24 24">
  <path fill-rule="evenodd" d="M3.65684737,6.60943145 C3.32767284,6.9532876 3.07703811,7.48889174 3.02086726,7.9737438 C2.95420919,8.54045066 3.03576225,9.45510639 3.43352779,10.6392518 C4.07294095,12.5427807 5.37303516,14.5802745 7.51090719,16.6825673 C10.70963,19.8276905 13.5613684,21 15.770853,21 C15.9844352,21 16.1524076,20.9869005 16.2665899,20.9688759 C16.75087,20.8950661 17.2769663,20.6209937 17.6137233,20.268103 L20.5473302,17.1632288 C20.9023619,16.7915595 21.0642112,16.2641639 20.976616,15.7655541 C20.8924884,15.288498 20.5854747,14.8649058 20.1389506,14.6200187 L16.9880442,12.8044745 C16.6825197,12.6492837 16.4041422,12.5818235 16.1176543,12.5818235 C15.6099246,12.5818235 15.1213173,12.7880641 14.7848674,13.1398418 L13.2857957,14.7379953 L12.9239491,14.5336715 C12.3926904,14.2336857 11.7653311,13.7503632 11.0438641,13.0408075 C10.2878754,12.2975273 9.77947936,11.651454 9.47099301,11.1070381 L9.27908852,10.7683657 L9.54506617,10.4841757 L10.6651831,9.28739683 C11.1714622,8.75676328 11.3090974,7.8908909 10.9967191,7.22804244 L10.9548026,7.14443356 L9.17950149,3.88251875 C8.89732575,3.33252791 8.36119245,3 7.76107769,3 C7.32053631,3 6.90820098,3.17847731 6.59241529,3.50836842 L3.65684737,6.60943145 Z"/>
</svg>

<svg width="24" height="24" fill="none" xmlns="http://www.w3.org/2000/svg"><path fill-rule="evenodd" clip-rule="evenodd" d="M3.657 6.61c-.33.343-.58.879-.636 1.364-.067.566.015 1.481.413 2.665.639 1.904 1.939 3.941 4.077 6.044C10.71 19.828 13.56 21 15.77 21c.213 0 .381-.013.496-.031a2.494 2.494 0 0 0 1.347-.7l2.933-3.106c.355-.371.517-.899.43-1.397a1.643 1.643 0 0 0-.838-1.146l-3.151-1.815a1.87 1.87 0 0 0-.87-.223c-.508 0-.997.206-1.333.558l-1.5 1.598-.361-.204c-.531-.3-1.159-.784-1.88-1.493-.756-.744-1.265-1.39-1.573-1.934l-.192-.339.266-.284 1.12-1.197c.507-.53.644-1.396.332-2.059l-.042-.084L9.18 3.883A1.584 1.584 0 0 0 7.76 3c-.44 0-.853.178-1.169.508L3.657 6.61Z" fill="#000"/></svg>
